public/arema.svg

<svg width="99" height="38" viewBox="0 0 99 38" fill="none" xmlns="http://www.w3.org/2000/svg">
<path fill-rule="evenodd" clip-rule="evenodd" d="M74.2151 35.7208V31.5635C74.2144 30.7246 74.2029 29.8858 74.1807 29.0471C74.1615 28.2963 74.1342 27.5025 74.099 26.6655C74.0616 25.7853 74.0184 24.9053 73.9692 24.0254C73.9377 23.6057 73.9184 23.0431 73.9114 22.3378C73.909 22.1084 73.9078 21.8791 73.9077 21.6497C73.8135 19.9941 73.7555 18.6063 73.7338 17.4864C73.7272 17.1687 73.7237 16.8508 73.7233 16.533L73.7848 13.9746C73.8258 13.2132 73.8463 12.3604 73.8463 11.4162C73.8463 10.7096 73.8311 10.0704 73.8008 9.49837C73.796 9.40668 73.7906 9.31501 73.7848 9.22335C73.7438 8.7665 73.7131 8.38579 73.6926 8.08122C73.6867 7.99191 73.6793 7.90267 73.6704 7.8135C73.652 7.63046 73.6286 7.47604 73.6003 7.35025L73.4774 7.67005C73.3553 8.27029 73.2284 8.87 73.0968 9.46914C72.7337 11.1278 72.2769 13.0775 71.7264 15.3182C71.6344 15.6928 71.5417 16.0672 71.4485 16.4416C70.5468 20.066 69.809 22.9746 69.2352 25.1675C68.7069 26.9626 68.3524 28.2799 68.1716 29.1193C68.1567 29.1878 68.1424 29.2563 68.1286 29.3249C68.0552 29.68 67.9077 29.9738 67.6859 30.2061C67.6605 30.2328 67.6338 30.2589 67.606 30.2843C67.5295 30.3554 67.4427 30.4201 67.3472 30.4771C67.2197 30.5517 67.0863 30.6021 66.9469 30.6283C66.871 30.6426 66.7929 30.6498 66.7145 30.6497C66.4873 30.6492 66.268 30.5879 66.0966 30.4771C66.0058 30.4201 65.9243 30.3554 65.8538 30.2843C65.7482 30.1773 65.6643 30.0594 65.6048 29.9343C65.5081 29.7385 65.4476 29.5049 65.4234 29.2335C65.3493 28.8665 65.2687 28.5002 65.1818 28.1348C64.7178 26.149 63.7532 22.434 62.2879 16.9898C62.0761 16.2025 61.8632 15.4154 61.6491 14.6284C60.3867 9.98858 59.6197 7.3498 59.3479 6.71203C59.3301 6.66418 59.3058 6.6178 59.2754 6.5736C59.2122 8.00352 59.1665 9.43383 59.1383 10.8644C59.1075 12.375 59.0918 13.9669 59.091 15.6398C59.0909 15.6939 59.0909 15.748 59.091 15.802C59.091 18.4822 59.1114 20.9036 59.1524 23.066C59.1738 24.2107 59.1892 25.3554 59.1985 26.5002C59.2088 27.7072 59.2139 28.9786 59.2139 30.3144C59.2139 30.3196 59.2139 30.3248 59.2139 30.3299C59.2144 30.4603 59.2183 30.5907 59.2256 30.721C59.2473 31.1389 59.3004 31.6882 59.3848 32.3689C59.3893 32.405 59.3938 32.4411 59.3984 32.4772L59.5213 34.67C59.522 34.8036 59.513 34.937 59.4943 35.0698C59.4549 35.3378 59.3721 35.5506 59.2459 35.708C59.2028 35.7626 59.1508 35.8129 59.091 35.8579C58.7899 35.8637 58.4936 35.8006 58.2424 35.6772C57.9912 35.5537 57.7972 35.3758 57.6867 35.1676C57.4342 34.7741 57.308 34.2123 57.308 33.4822V25.8528L57.3695 21.2386C57.4105 19.868 57.431 18.3147 57.431 16.5787C57.4307 15.6832 57.4353 14.7878 57.4445 13.8924C57.4535 13.0509 57.4668 12.2555 57.4845 11.5062C57.487 11.4001 57.4897 11.294 57.4925 11.1878L57.6154 5.75127V1.73096C57.6158 1.62041 57.6661 1.51314 57.7581 1.42624C57.7979 1.38757 57.8428 1.35191 57.8921 1.3198C57.9578 1.27566 58.0304 1.23762 58.1085 1.2065C58.2215 1.16123 58.3478 1.13737 58.4761 1.13706C58.7446 1.13706 58.9444 1.21868 59.0756 1.38193C59.106 1.42035 59.1317 1.46071 59.1524 1.50254C59.4975 2.35716 60.3267 4.77071 61.6399 8.7432C61.7331 9.02505 61.8261 9.30693 61.9191 9.58883C63.0487 13.0167 63.9621 15.8465 64.6592 18.0781C64.8553 18.7047 65.0486 19.3318 65.239 19.9594C65.3472 20.3816 65.4525 20.8042 65.555 21.2272C65.9165 22.7125 66.4055 24.8179 67.0219 27.5431L67.4523 25.7614C67.5466 25.3417 67.6767 24.797 67.8427 24.1273C67.8966 23.9105 67.9509 23.6938 68.0056 23.4772C68.0638 23.1963 68.1224 22.9155 68.1815 22.6347C68.5717 20.7826 68.8204 19.7233 68.9278 19.4569L71.7559 8.26396L72.3093 5.88832L72.9855 3.32995L73.293 1.95939C73.3339 1.65482 73.4569 1.41878 73.6618 1.25127C73.7265 1.19751 73.7996 1.14966 73.8795 1.10873C74.0138 1.03853 74.1739 1.00059 74.3381 1C74.4715 1.00046 74.6011 1.03335 74.707 1.09365C74.7632 1.12442 74.8173 1.16264 74.8693 1.20832C74.8768 1.21495 74.8842 1.22165 74.8914 1.22843C75.0259 1.3533 75.1052 1.51914 75.1294 1.72594C75.1348 1.77319 75.1375 1.8206 75.1374 1.86802V6.39086C75.1386 7.03525 75.1501 7.67962 75.1718 8.32381C75.2407 10.464 75.412 13.2561 75.6858 16.7002C75.6874 16.7206 75.689 16.741 75.6907 16.7614C75.9776 21.0254 76.121 24.4518 76.121 27.0406C76.1215 27.2738 76.1254 27.5069 76.1327 27.7401C76.1553 28.5036 76.2106 29.5037 76.2987 30.7402C76.301 30.771 76.3032 30.8017 76.3055 30.8325C76.3242 31.3315 76.3418 31.8305 76.3584 32.3296C76.394 33.405 76.4162 34.2572 76.4248 34.8861C76.4271 35.0578 76.4284 35.2294 76.4285 35.401C76.4288 35.5367 76.4259 35.6724 76.4198 35.8081C76.4014 36.194 76.3549 36.4752 76.2803 36.6519C76.2699 36.677 76.2578 36.7017 76.244 36.7259C76.0801 36.9086 75.8546 37 75.5677 37C75.0738 37 74.7297 36.915 74.5355 36.7451C74.52 36.7316 74.5054 36.7176 74.4918 36.703C74.4278 36.6319 74.3777 36.5544 74.343 36.4728C74.2746 36.3193 74.2336 36.1268 74.2201 35.8953C74.2168 35.8372 74.2151 35.779 74.2151 35.7208ZM33.5765 35.4924L32.8388 33.4822C31.6911 30.6497 30.8509 28.2589 30.3181 26.3096C30.0672 25.4934 29.7682 24.4362 29.4211 23.1382C29.3088 22.7184 29.1979 22.2984 29.0885 21.8782C28.5753 19.9164 28.0947 18.2838 27.6467 16.9803C27.5956 16.831 27.5433 16.6819 27.49 16.533L26.8752 16.8071L26.0759 17.0812L26.1989 34.67V35.3553C26.1989 35.9645 25.83 36.269 25.0922 36.269C24.9674 36.2698 24.8432 36.257 24.7233 36.2311C24.5606 36.1955 24.4126 36.13 24.293 36.0406C24.1957 35.9709 24.1183 35.8873 24.0655 35.7948C24.0127 35.7023 23.9855 35.6029 23.9856 35.5024C23.9855 35.4991 23.9855 35.4957 23.9856 35.4924V34.8071L24.1085 25.5787L24.2315 21.1472C24.2901 19.2599 24.3401 17.3725 24.3815 15.485C24.4135 14.0051 24.4375 12.6024 24.4534 11.2769C24.4689 10.029 24.4769 8.78098 24.4774 7.533V1.63959C24.4774 1.39624 24.7682 1.26086 25.3498 1.23345C25.4278 1.22995 25.5059 1.22828 25.5841 1.22843C26.6497 1.22843 27.6437 1.44163 28.5659 1.86802C29.4881 2.29442 30.2156 2.8731 30.7484 3.60406C31.8551 5.09645 32.4084 6.72589 32.4084 8.49239C32.4028 9.25339 32.2932 10.012 32.0813 10.7565C31.8768 11.496 31.576 12.2642 31.1788 13.0609C31.0808 13.2427 30.9799 13.4236 30.8763 13.6037C30.7849 13.7626 30.6876 13.9282 30.5843 14.1003C30.4766 14.2797 30.3674 14.4587 30.2566 14.6371C29.973 15.0939 29.7135 15.4381 29.4782 15.6695C29.4154 15.7324 29.3468 15.7919 29.2729 15.8477C30.1258 18.1719 31.3614 21.7376 32.9796 26.5449C32.9941 26.5883 33.0087 26.6317 33.0232 26.6751L35.9128 34.8985C35.9526 34.9868 35.973 35.1461 35.9743 35.3763C35.9743 35.3846 35.9743 35.3928 35.9743 35.401C35.9743 35.6751 35.9025 35.9112 35.7591 36.1091C35.7155 36.171 35.6584 36.227 35.59 36.275C35.4699 36.3575 35.3214 36.4011 35.1443 36.4056C35.134 36.4059 35.1238 36.4061 35.1135 36.4061C34.4319 36.4061 33.9628 36.1955 33.7063 35.7743C33.6517 35.6834 33.6083 35.589 33.5765 35.4924ZM13.4109 35.1726V29.1878C13.4109 28.8421 12.4752 28.5236 10.6037 28.2321C10.4944 28.2151 10.385 28.1987 10.2754 28.1827C8.90359 27.9829 7.69057 27.8486 6.63638 27.7798C6.12923 27.7454 5.62031 27.7274 5.11105 27.7259C5.09946 27.7274 5.08843 27.7307 5.07868 27.7355C5.06892 27.7404 5.06068 27.7468 5.05449 27.7542C4.97293 27.8282 4.85858 28.0472 4.71143 28.4112C4.53396 28.851 4.40382 29.1779 4.32103 29.392C4.31795 29.4001 4.31488 29.4082 4.31181 29.4162C3.77898 31 3.24615 32.6904 2.71332 34.4873L2.40592 35.4924C2.38708 35.5517 2.35619 35.6086 2.31431 35.661C2.20651 35.7922 2.03211 35.8579 1.79111 35.8579C1.46321 35.8579 1.16606 35.7817 0.899644 35.6294C0.813941 35.5815 0.737413 35.5251 0.672166 35.4618C0.55944 35.3527 0.498862 35.2188 0.500016 35.0812L0.561494 34.9898V34.9442L1.23779 32.6599C1.70286 31.3098 2.12167 29.9511 2.49383 28.5852C2.50556 28.5424 2.51724 28.4997 2.52887 28.4569C2.93874 26.9036 3.24615 25.8985 3.45108 25.4416C3.75807 24.5011 4.35198 22.2406 5.23279 18.6601C5.29485 18.4079 5.35674 18.1558 5.41846 17.9036L5.78734 16.3959C5.97323 15.5773 6.16157 14.7589 6.35235 13.9408C7.1184 10.6588 7.66783 8.52284 8.00064 7.533C8.15762 6.9735 8.41072 6.20858 8.75993 5.23822C8.87389 4.92156 8.98968 4.60526 9.10729 4.28934C9.30472 3.70782 9.56691 3.13952 9.89117 2.59031C9.91645 2.5474 9.94206 2.50461 9.96802 2.46193C10.0314 2.37241 10.0984 2.28435 10.1691 2.19787C10.3842 1.93624 10.5754 1.77482 10.7427 1.7136C10.7882 1.69582 10.8388 1.68612 10.8902 1.68528C11.0695 1.68422 11.2485 1.6977 11.4239 1.72548C11.6436 1.76142 11.8333 1.82203 11.9932 1.90731C12.1141 1.97187 12.2193 2.05128 12.3043 2.14213C12.5092 2.41624 12.8269 3.92386 13.2572 6.66497C13.6876 9.40609 14.0667 12.1777 14.3946 14.9797L15.1939 22.5634C15.1939 23.8673 15.3158 25.8353 15.5597 28.4674C15.5607 28.4791 15.5617 28.4908 15.5627 28.5025C15.8087 31.1827 15.9316 33.1777 15.9316 34.4873V34.67C15.9326 34.8474 15.9137 35.0245 15.8751 35.1995C15.8459 35.3299 15.8031 35.4583 15.7472 35.5838C15.6656 35.7012 15.5314 35.794 15.3679 35.846C15.1687 35.9148 14.9057 35.9492 14.5791 35.9492C14.4293 35.9504 14.2804 35.9323 14.1389 35.8958C13.9945 35.8574 13.862 35.7979 13.7491 35.7208C13.5236 35.5685 13.4109 35.3858 13.4109 35.1726ZM95.9793 35.1726V29.1878C95.9793 28.8421 95.0435 28.5236 93.1721 28.2321C93.0628 28.2151 92.9533 28.1987 92.8438 28.1827C91.4719 27.9829 90.2589 27.8486 89.2047 27.7798C88.6976 27.7454 88.1886 27.7274 87.6794 27.7259C87.6678 27.7274 87.6568 27.7307 87.647 27.7355C87.6373 27.7404 87.629 27.7468 87.6228 27.7542C87.5413 27.8282 87.4269 28.0472 87.2798 28.4112C87.1023 28.851 86.9722 29.1779 86.8894 29.392C86.8863 29.4001 86.8832 29.4082 86.8801 29.4162C86.3473 31 85.8145 32.6904 85.2816 34.4873L84.9742 35.4924C84.9554 35.5517 84.9245 35.6086 84.8826 35.661C84.7748 35.7922 84.6004 35.8579 84.3594 35.8579C84.0315 35.8579 83.7344 35.7817 83.468 35.6294C83.3823 35.5815 83.3057 35.5251 83.2405 35.4618C83.1278 35.3527 83.0672 35.2188 83.0684 35.0812L83.1298 34.9898V34.9442L83.8061 32.6599C84.2712 31.3098 84.69 29.9511 85.0622 28.5852C85.0739 28.5424 85.0856 28.4997 85.0972 28.4569C85.5071 26.9036 85.8145 25.8985 86.0194 25.4416C86.3264 24.5011 86.9203 22.2406 87.8011 18.6601C87.8632 18.4079 87.9251 18.1558 87.9868 17.9036L88.3557 16.3959C88.5416 15.5773 88.7299 14.7589 88.9207 13.9408C89.6867 10.6588 90.2362 8.52284 90.569 7.533C90.726 6.9735 90.979 6.20858 91.3283 5.23822C91.4422 4.92156 91.558 4.60526 91.6756 4.28934C91.8731 3.70782 92.1353 3.13952 92.4595 2.59031C92.4848 2.5474 92.5104 2.50461 92.5363 2.46193C92.5997 2.37241 92.6668 2.28435 92.7374 2.19787C92.9526 1.93624 93.1438 1.77482 93.311 1.7136C93.3566 1.69582 93.4071 1.68612 93.4586 1.68528C93.6379 1.68422 93.8168 1.6977 93.9922 1.72548C94.2119 1.76142 94.4017 1.82203 94.5615 1.90731C94.6824 1.97187 94.7876 2.05128 94.8726 2.14213C95.0775 2.41624 95.3952 3.92386 95.8256 6.66497C96.2559 9.40609 96.635 12.1777 96.9629 14.9797L97.7622 22.5634C97.7622 23.8673 97.8841 25.8353 98.128 28.4674C98.129 28.4791 98.1301 28.4908 98.1311 28.5025C98.377 31.1827 98.5 33.1777 98.5 34.4873V34.67C98.5009 34.8474 98.482 35.0245 98.4434 35.1995C98.4142 35.3299 98.3715 35.4583 98.3155 35.5838C98.2339 35.7012 98.0998 35.794 97.9362 35.846C97.737 35.9148 97.4741 35.9492 97.1474 35.9492C96.9976 35.9504 96.8487 35.9323 96.7072 35.8958C96.5628 35.8574 96.4303 35.7979 96.3174 35.7208C96.092 35.5685 95.9793 35.3858 95.9793 35.1726ZM41.8764 35.2183V34.3503C41.8358 34.1084 41.8153 33.8368 41.8149 33.5352V33.5279V33.4365L41.8764 26.7665L41.8149 7.89848C41.8149 6.55838 41.7955 5.34071 41.7565 4.24548C41.7402 3.77267 41.7186 3.29996 41.692 2.82741C41.6909 2.69323 41.7065 2.55925 41.7387 2.42721C41.7793 2.2667 41.8459 2.12173 41.9385 1.99228C41.9576 1.96557 41.9779 1.93936 41.9994 1.91371C42.0577 1.84281 42.1284 1.77798 42.2096 1.72091C42.368 1.60837 42.5795 1.54638 42.7986 1.54822H46.6104C46.7605 1.54807 46.9105 1.5505 47.0604 1.55553C47.3318 1.56497 47.5597 1.58355 47.7441 1.61127C47.797 1.6192 47.8495 1.62864 47.9015 1.63959C48.0314 1.66652 48.1497 1.71781 48.2452 1.78854C48.3407 1.85926 48.4101 1.94704 48.4468 2.04345C48.4813 2.12203 48.503 2.21112 48.512 2.31071C48.515 2.34584 48.5164 2.38104 48.5163 2.41624C48.5163 2.6599 48.3933 2.85787 48.1474 3.01015C47.9015 3.16244 47.6351 3.25381 47.3482 3.28426H46.303L45.3193 3.23858L44.3356 3.19289C44.2705 3.19268 44.2055 3.19497 44.1407 3.19975C43.9587 3.21406 43.829 3.24985 43.7516 3.30711C43.6647 3.37167 43.6147 3.48589 43.6015 3.64975C43.5991 3.68017 43.5979 3.71064 43.5979 3.74112C43.5979 5.17259 43.6184 6.467 43.6593 7.62436V11.5076V17.2183C43.6593 17.2792 43.7003 17.3096 43.7823 17.3096H43.8438H43.9053C44.5416 17.2724 45.1792 17.2469 45.8173 17.2333C46.2865 17.2232 46.7558 17.2181 47.2252 17.2183C47.35 17.2172 47.4746 17.2267 47.5965 17.2466C48.0048 17.3176 48.2089 17.5213 48.2089 17.8579C48.2092 17.9259 48.2048 17.9939 48.196 18.0616C48.1775 18.1987 48.1386 18.3074 48.0792 18.3878C48.0564 18.4196 48.0276 18.4489 47.9937 18.4746C47.8527 18.5794 47.623 18.6327 47.3045 18.6345C47.2986 18.6345 47.2926 18.6345 47.2867 18.6345H43.7823C43.6184 18.6345 43.5364 18.7107 43.5364 18.8629L43.6593 25.6244C43.697 26.6048 43.7251 27.5853 43.7436 28.566C43.7628 29.5708 43.7749 30.6324 43.7798 31.7508C43.7815 32.1299 43.7823 32.5091 43.7823 32.8883V34.5787H46.426H49.0081H49.5615C50.2992 34.5787 50.6681 34.7766 50.6681 35.1726C50.6681 35.6599 50.4837 35.9492 50.1148 36.0406C49.9741 36.0738 49.8302 36.0991 49.6844 36.1164C49.2164 36.1758 48.5388 36.2106 47.6519 36.2206C47.4687 36.2225 47.2855 36.2234 47.1022 36.2233H44.5201C43.5364 36.2233 42.8498 36.1548 42.4605 36.0178C42.3204 35.9699 42.1978 35.8978 42.1029 35.8075C42.008 35.7172 41.9436 35.6114 41.9151 35.4988C41.8882 35.4066 41.8753 35.3126 41.8764 35.2183ZM11.505 6.75634L11.2591 4.97462V4.97736C11.2558 4.99076 11.2148 4.82233 11.1361 4.47208L11.0132 3.92386C10.9009 4.15587 10.7994 4.39068 10.7089 4.62787C10.5187 5.11944 10.3324 5.70132 10.15 6.3735C10.1194 6.48578 10.0894 6.59817 10.0602 6.71066C9.93769 7.1853 9.82088 7.66075 9.7098 8.13695C9.61143 8.55817 9.51203 9.0001 9.41161 9.46274C9.30688 9.94601 9.20545 10.4297 9.10729 10.9137C8.1236 15.4518 7.28337 18.8629 6.58659 21.1472L6.03327 22.7005C5.53609 23.9316 5.23996 24.9237 5.14487 25.6769C5.12323 25.8417 5.11195 26.0071 5.11105 26.1726V26.4467C6.11814 26.6809 7.15146 26.8476 8.19861 26.9447C9.2341 27.0416 10.2769 27.0889 11.3206 27.0863H11.6895C11.8124 27.1167 11.9559 27.132 12.1198 27.132C12.2568 27.1325 12.3937 27.1273 12.5299 27.1164C12.8041 27.0936 13.0095 27.0452 13.1459 26.9712C13.2104 26.9383 13.2628 26.8941 13.2983 26.8424C13.3339 26.7907 13.3514 26.7332 13.3494 26.6751C13.3494 24.9692 13.2324 22.6981 12.9984 19.8616C12.9727 19.5515 12.9463 19.2415 12.9191 18.9315C12.8005 17.5728 12.671 16.2147 12.5305 14.8573C12.4022 13.6192 12.2701 12.4504 12.134 11.3509C12.0896 10.9919 12.0439 10.6329 11.9969 10.2741C11.9149 9.20812 11.751 8.03553 11.505 6.75634ZM94.0734 6.75634L93.8274 4.97462V4.97736C93.8242 4.99076 93.7832 4.82233 93.7045 4.47208L93.5815 3.92386C93.4693 4.15587 93.3678 4.39068 93.2772 4.62787C93.087 5.11944 92.9007 5.70132 92.7183 6.3735C92.6877 6.48578 92.6578 6.59817 92.6286 6.71066C92.506 7.1853 92.3892 7.66075 92.2781 8.13695C92.1798 8.55817 92.0804 9.0001 91.9799 9.46274C91.8752 9.94601 91.7738 10.4297 91.6756 10.9137C90.6919 15.4518 89.8517 18.8629 89.1549 21.1472L88.6016 22.7005C88.1044 23.9316 87.8083 24.9237 87.7132 25.6769C87.6916 25.8417 87.6803 26.0071 87.6794 26.1726V26.4467C88.6865 26.6809 89.7198 26.8476 90.767 26.9447C91.8024 27.0416 92.8452 27.0889 93.8889 27.0863H94.2578C94.3808 27.1167 94.5242 27.132 94.6882 27.132C94.8251 27.1325 94.9621 27.1273 95.0983 27.1164C95.3725 27.0936 95.5778 27.0452 95.7143 26.9712C95.7787 26.9383 95.8311 26.8941 95.8667 26.8424C95.9022 26.7907 95.9198 26.7332 95.9178 26.6751C95.9178 24.9692 95.8008 22.6981 95.5667 19.8616C95.5411 19.5515 95.5146 19.2415 95.4874 18.9315C95.3689 17.5728 95.2393 16.2147 95.0989 14.8573C94.9706 13.6192 94.8384 12.4504 94.7023 11.3509C94.658 10.9919 94.6123 10.6329 94.5652 10.2741C94.4832 9.20812 94.3193 8.03553 94.0734 6.75634ZM26.3218 2.64467H26.1989C26.1648 2.66995 26.1169 2.68472 26.055 2.68898C26.0415 2.68991 26.028 2.69037 26.0144 2.69036V15.5736C26.1107 15.5707 26.2052 15.5535 26.2923 15.5229C26.5632 15.4358 26.9207 15.2378 27.3645 14.929C27.4695 14.8558 27.5728 14.7813 27.6744 14.7056C28.4532 14.1269 29.0065 13.6396 29.3344 13.2437C29.4319 13.096 29.5168 12.9439 29.5883 12.7882C29.7436 12.4568 29.8846 12.0502 30.0113 11.5684C30.0324 11.4873 30.0527 11.4062 30.0721 11.3249C30.2771 10.4721 30.3795 9.71066 30.3795 9.04061C30.3795 7.79188 30.0926 6.51269 29.5188 5.20304C29.2372 4.45533 28.8173 3.84726 28.2591 3.37883C28.2487 3.37011 28.2382 3.36143 28.2277 3.35279C28.0458 3.20062 27.8398 3.06532 27.6142 2.94985C27.2354 2.75247 26.7844 2.64597 26.3218 2.64467Z" fill="#2BC0FF" stroke="#2BC0FF" stroke-width="0.944882" stroke-linecap="round"/>
</svg>

<svg xmlns="http://www.w3.org/2000/svg" width="99" height="38" fill="none" viewBox="0 0 99 38"><path fill="#2bc0ff" fill-rule="evenodd" stroke="#2bc0ff" stroke-linecap="round" stroke-width=".945" d="M74.215 35.72v-4.156q0-1.26-.034-2.517-.03-1.125-.082-2.381-.055-1.32-.13-2.64-.046-.63-.058-1.688l-.003-.688a115 115 0 0 1-.174-4.164 49 49 0 0 1-.01-.953l.06-2.558a48 48 0 0 0 .017-4.477l-.016-.275a53 53 0 0 1-.092-1.142 8 8 0 0 0-.023-.267 4 4 0 0 0-.07-.464l-.123.32q-.183.9-.38 1.8-.545 2.488-1.37 5.848-.139.563-.279 1.124a780 780 0 0 1-2.213 8.726q-.793 2.692-1.063 3.951-.023.103-.043.206a1.76 1.76 0 0 1-.523.96 1.5 1.5 0 0 1-.259.192 1.24 1.24 0 0 1-.632.173c-.228 0-.447-.062-.618-.173a1.288 1.288 0 0 1-.492-.543 2 2 0 0 1-.182-.7 33 33 0 0 0-.241-1.1q-.696-2.978-2.894-11.144-.318-1.181-.639-2.362-1.894-6.96-2.301-7.916a.6.6 0 0 0-.073-.138q-.094 2.145-.137 4.29a240 240 0 0 0-.047 4.938q0 4.02.061 7.264.032 1.718.047 3.434.015 1.811.015 3.814v.016q0 .195.012.391a24 24 0 0 0 .172 1.756l.123 2.193q.001.2-.027.4-.06.401-.248.638a.8.8 0 0 1-.155.15 1.86 1.86 0 0 1-.849-.18 1.23 1.23 0 0 1-.555-.51q-.38-.591-.379-1.686v-7.63l.062-4.613q.06-2.056.061-4.66 0-1.343.014-2.687a185 185 0 0 1 .047-2.704l.123-5.437v-4.02c0-.11.051-.218.143-.305a1.154 1.154 0 0 1 .35-.22 1 1 0 0 1 .368-.069q.403 0 .6.245.045.058.076.12.519 1.283 2.488 7.241l.28.846a594 594 0 0 1 2.74 8.49q.293.94.579 1.88.162.634.316 1.268.541 2.227 1.467 6.316l.43-1.782q.142-.63.39-1.634l.164-.65.175-.842q.586-2.779.747-3.178l2.828-11.193.553-2.376.677-2.558.307-1.37q.06-.457.369-.709.097-.08.217-.142c.135-.07.295-.108.46-.109.133 0 .262.033.368.094a1 1 0 0 1 .184.134q.202.188.238.498.008.071.008.142v4.523q.003.966.035 1.933.103 3.21.514 8.376l.005.061q.43 6.395.43 10.28 0 .35.012.7.034 1.145.166 3l.006.091q.03.75.053 1.498.054 1.613.067 2.556l.004.515q0 .204-.01.407-.027.579-.139.844a1 1 0 0 1-.036.074q-.246.274-.676.274-.741 0-1.032-.255l-.044-.042a.8.8 0 0 1-.149-.23 1.7 1.7 0 0 1-.123-.578 3 3 0 0 1-.005-.174Zm-40.638-.228-.738-2.01q-1.722-4.248-2.52-7.172-.377-1.225-.898-3.172-.168-.63-.332-1.26-.77-2.943-1.442-4.898-.077-.223-.157-.447l-.615.274-.8.274.124 17.589v.685q0 .915-1.107.914-.188 0-.369-.038a1.1 1.1 0 0 1-.43-.19.8.8 0 0 1-.227-.246.6.6 0 0 1-.08-.303v-.685l.122-9.228.123-4.432q.09-2.83.15-5.662.048-2.22.072-4.208.024-1.872.024-3.744V1.64q0-.366.873-.407.117-.005.234-.005 1.599 0 2.982.64t2.182 1.736q1.66 2.238 1.66 4.888a8.5 8.5 0 0 1-.327 2.265q-.306 1.109-.902 2.304a23 23 0 0 1-.595 1.04q-.161.269-.327.536-.426.686-.779 1.032a2 2 0 0 1-.205.179q1.279 3.486 3.707 10.697l.043.13 2.89 8.223q.06.133.061.478v.025q0 .411-.215.708a.7.7 0 0 1-.169.166.8.8 0 0 1-.477.131q-1.022 0-1.407-.632a1.4 1.4 0 0 1-.13-.282Zm-20.166-.32v-5.984q0-.518-2.807-.956l-.329-.05a47 47 0 0 0-3.639-.402 24 24 0 0 0-1.525-.054.1.1 0 0 0-.032.01.1.1 0 0 0-.025.018q-.121.111-.343.657-.266.66-.39.981l-.01.024a147 147 0 0 0-1.598 5.071l-.307 1.005a.5.5 0 0 1-.092.169q-.161.197-.523.197-.492 0-.891-.229a1 1 0 0 1-.228-.167.53.53 0 0 1-.172-.38l.061-.092v-.046l.677-2.284a65 65 0 0 0 1.29-4.203q.615-2.33.923-3.015.46-1.41 1.782-6.782l.185-.756.37-1.508q.278-1.228.564-2.455 1.15-4.923 1.649-6.408.236-.84.759-2.295.171-.474.347-.949a9 9 0 0 1 .861-1.827q.095-.135.201-.264.322-.393.574-.484a.4.4 0 0 1 .147-.029q.27 0 .534.04.33.054.57.182.181.098.31.235.308.411.953 4.523.646 4.112 1.138 8.315l.799 7.583q0 1.956.366 5.904l.003.036q.369 4.02.369 5.984v.183q0 .266-.057.53a2 2 0 0 1-.128.384.72.72 0 0 1-.38.262q-.297.103-.788.103a1.7 1.7 0 0 1-.44-.053 1.3 1.3 0 0 1-.39-.175q-.338-.228-.338-.548Zm82.568 0v-5.984q0-.518-2.807-.956l-.328-.05a47 47 0 0 0-3.64-.402 24 24 0 0 0-1.525-.054.1.1 0 0 0-.032.01.1.1 0 0 0-.024.018q-.123.111-.343.657a80 80 0 0 0-.4 1.005 147 147 0 0 0-1.598 5.071l-.308 1.005a.5.5 0 0 1-.091.169q-.162.197-.524.197-.492 0-.891-.229a1 1 0 0 1-.228-.167.52.52 0 0 1-.172-.38l.062-.092v-.046l.676-2.284a65 65 0 0 0 1.256-4.075l.035-.128q.615-2.33.922-3.015.46-1.41 1.782-6.782l.186-.756.369-1.508q.279-1.228.565-2.455 1.149-4.923 1.648-6.408a36 36 0 0 1 .76-2.295q.17-.474.347-.949a9 9 0 0 1 .86-1.827q.095-.135.201-.264.324-.393.574-.484a.4.4 0 0 1 .148-.029q.27 0 .533.04.33.054.57.182.182.098.31.235.308.411.954 4.523t1.137 8.315l.8 7.583q0 1.956.365 5.904l.003.036q.369 4.02.369 5.984v.183q0 .266-.057.53-.044.195-.127.384a.72.72 0 0 1-.38.262q-.299.103-.789.103a1.7 1.7 0 0 1-.44-.053 1.3 1.3 0 0 1-.39-.175q-.338-.228-.338-.548Zm-54.103.046v-.868a5 5 0 0 1-.061-.815v-.098l.061-6.67-.061-18.869q0-2.01-.058-3.653a65 65 0 0 0-.065-1.418 1.6 1.6 0 0 1 .047-.4 1.3 1.3 0 0 1 .26-.513 1.013 1.013 0 0 1 .8-.365h3.811q.225 0 .45.007.408.014.684.055.08.012.157.029c.13.027.249.078.344.149.096.07.165.158.202.254a.9.9 0 0 1 .065.268 1 1 0 0 1 .004.105q0 .366-.369.594a1.9 1.9 0 0 1-.799.274h-1.045l-.984-.045-.983-.046q-.098 0-.195.007-.273.021-.39.107-.129.097-.15.343-.003.045-.003.091 0 2.148.061 3.883v9.594q0 .092.123.092h.123a52 52 0 0 1 1.912-.077q.705-.015 1.408-.015.188 0 .371.029.613.105.613.61 0 .103-.013.205a.7.7 0 0 1-.117.326.4.4 0 0 1-.085.087q-.212.157-.69.16h-3.522q-.246 0-.246.228l.123 6.761q.057 1.47.085 2.942a217 217 0 0 1 .038 4.322v1.69h5.779q1.107 0 1.107.595 0 .73-.553.868-.211.05-.43.075-.703.09-2.033.105-.275.003-.55.002H44.52q-1.476 0-2.06-.205a1 1 0 0 1-.357-.21.65.65 0 0 1-.188-.31 1 1 0 0 1-.039-.28ZM11.505 6.756l-.246-1.781v.002q-.005.02-.123-.505l-.123-.548a9 9 0 0 0-.304.704q-.286.737-.559 1.745l-.09.338q-.184.712-.35 1.426a111.344 111.344 0 0 0-.603 2.777q-1.475 6.807-2.52 10.233l-.554 1.554q-.745 1.846-.888 2.976-.033.247-.034.496v.274c1.007.234 2.04.4 3.088.498a33 33 0 0 0 3.122.141h.369q.183.046.43.046.206 0 .41-.016.412-.033.616-.145a.4.4 0 0 0 .152-.129.28.28 0 0 0 .051-.167q0-2.559-.35-6.813l-.08-.93a255 255 0 0 0-.389-4.075 178 178 0 0 0-.533-4.583 32 32 0 0 0-.492-3.518Zm82.568 0-.246-1.781v.002q-.004.02-.123-.505l-.122-.548a9 9 0 0 0-.305.704q-.285.737-.559 1.745l-.09.338q-.183.712-.35 1.426a89 89 0 0 0-.602 2.777Q90.2 17.72 89.155 21.147l-.553 1.554q-.747 1.846-.889 2.976a4 4 0 0 0-.034.496v.274c1.007.234 2.04.4 3.088.498q1.554.145 3.122.141h.369q.184.046.43.046.206 0 .41-.016.412-.033.616-.145a.4.4 0 0 0 .153-.129.28.28 0 0 0 .05-.167q0-2.559-.35-6.813-.038-.465-.08-.93a255 255 0 0 0-.388-4.075 178 178 0 0 0-.534-4.583 32 32 0 0 0-.492-3.518ZM26.322 2.645h-.123a.27.27 0 0 1-.144.044l-.04.001v12.884a1 1 0 0 0 .277-.051q.407-.13 1.072-.594.158-.11.31-.223 1.169-.869 1.66-1.462.147-.222.254-.456.234-.497.423-1.22.032-.12.061-.243.308-1.28.308-2.284 0-1.874-.861-3.838-.423-1.122-1.26-1.824l-.031-.026a3.3 3.3 0 0 0-.614-.403 2.84 2.84 0 0 0-1.292-.305Z" clip-rule="evenodd"/></svg>
